!!!OTL: Hennecke Knecht
!!!ARE: Europa, Mitteleuropa, Deutschland
!!!SCT: A0463
!!!YEM: Copyright 1995, estate of Helmut Schaffrath.
**kern
*ICvox
*Ivox
*M4/2
*k[b-]
*d:
{2d
=1
2fn
2fn
2g
2g
=2
2a
2a
2a
4r}
{4a
=3
2g
2a
2b-
2a
=4
2g
2fn
2g}
{2g
=5
2a
2a
2fn
2fn
=6
1d
2cn
4r}
{4a
=7
2a
4a
4g
2fn
2fn
=8
2g
2fn
2g
4r}
{4a
=9
2fn
2fn
2d
2fn
=10
1e
2d}
==
!!!AGN: Romanze, Ballade, Lied
!! Babst Gsgb. 1545 und Dresdner Cod. M. 53
!!!ONB: ESAC (Essen Associative Code) Database: ALTDEU
!!!AMT: simple quadruple
!!!AIN: vox
!!!EED: Helmut Schaffrath
!!!EEV: 1.0
*-
